X: 05050
T: LARRY'S REEL
C: Bob McQuillen 4 April 81
B: Bob's Note Book 5 #50
%R: reel
Z: 2021 John Chambers <jc:trillian.mit.edu>
M: C
L: 1/8
K: Em
B,2D2 \
| E3D E2GE | D2B,2 D2ed | B2G2 ABAG | FEDE D2B,2 || G3A B2e2 | d2B2 A2GA | Bd3 d3e | d4 g3f |
| e3d e2ge | d2 B4 de | d2B2 A2BA | G2E2 E3F || G3A B2ed | e2d2 B2AB | G2E2 E3D | E4 |]
[| B2d2 | e2d2 e2ge | d2 B4 ed | B2GB AGEG | D2 B,4 EF || G3A B2e2 | d2B2 A2GA | B2d2 d2ed | B2 A4 Bd |
| e3d e2ge | d2B2 d2ed | B2GB AGEG | DEDB, D2EF || G3A B2de | d2BA B2BA | GEDE B,2D2 | E4 |]
|: "_Repeat only if desired."e2f2 \
| g3f e2d2 | e2f2 g2ef | gagf e2ed | B2d2 e2ge | d2B2 A2BA | G2 E4 GA | B2e2 d2B2 | A4 G3A |
| B2e2 e3f | e2d2 B3A | G2BG A2GE | D3E D2GF || E3F G3A | B2e2 e3d | B2AG F2D2 | E4 :|
%%begintext align
%% Originally entitled "Larry Haddock's
%% Welcome to the Indian Neck Folk Festival." But that seemed to
%% be a _little_ combersome, so it was shortened some. But it's
%% your tune, Larry and, like your waltz, it comes with love from
%% Bob =+++=
%%endtext

%%sep 1 1 500

%%sep 1 1 500

